apps/22/webcam-capture.svg

<?xml version="1.0" encoding="UTF-8"?>
<svg id="b" width="22" height="22" version="1.1" xmlns="http://www.w3.org/2000/svg" xmlns:cc="http://creativecommons.org/ns#" xmlns:dc="http://purl.org/dc/elements/1.1/" xmlns:rdf="http://www.w3.org/1999/02/22-rdf-syntax-ns#">
	<metadata id="e">
		<rdf:RDF>
			<cc:Work rdf:about="">
				<dc:format>image/svg+xml</dc:format>
				<dc:type rdf:resource="http://purl.org/dc/dcmitype/StillImage"/>
				<dc:title/>
			</cc:Work>
		</rdf:RDF>
	</metadata>
	<defs id="c">
		<style id="current-color-scheme" type="text/css">.ColorScheme-Text {color:#090d11;}.ColorScheme-Background{color:#ffffff;}</style>
	</defs>
	<path id="d" class="ColorScheme-Text" d="m11 2c-3.866 0-7 3.134-7 7 0 1.933 0.7957 3.6707 2.0625 4.9375l-3.0625 5.0625h16l-3.0625-5.0625c1.2668-1.2668 2.0625-3.0045 2.0625-4.9375 0-3.866-3.134-7-7-7zm0 4c2.2091 0 4 1.7909 4 4s-1.7909 4-4 4-4-1.7909-4-4 1.7909-4 4-4zm0 2c-1.1046 0-2 0.8954-2 2s0.8954 2 2 2 2-0.8954 2-2-0.8954-2-2-2z" style="fill-opacity:.75;fill:currentColor"/>
	<path id="a" class="ColorScheme-Background" d="m9.2 1c-3.6643 0.8128-6.4062 4.0946-6.4062 8 0 1.8978 0.7593 3.5521 1.8437 4.9375l-2.6875 4.4375-0.9687 1.625h20l-0.9688-1.625-2.6875-4.4375c1.0845-1.3854 1.8438-3.0397 1.8438-4.9375 0-3.9054-2.7419-7.1872-6.4063-8zm1.7813 1c3.866 0 7 3.134 7 7 0 1.933-0.7957 3.6707-2.0625 4.9375l3.0625 5.0625h-16l3.0625-5.0625c-1.2668-1.2668-2.0625-3.0045-2.0625-4.9375 0-3.866 3.134-7 7-7zm0 4c-2.2091 0-4 1.7909-4 4s1.7909 4 4 4 4-1.7909 4-4-1.7909-4-4-4zm0 2c1.1046 0 2 0.8954 2 2s-0.8954 2-2 2-2-0.8954-2-2 0.8954-2 2-2z" style="fill-opacity:.5;fill:currentColor"/>
</svg>

<?xml version="1.0" encoding="UTF-8" standalone="no"?>
<!-- Created with Inkscape (http://www.inkscape.org/) -->

<svg
   xmlns:dc="http://purl.org/dc/elements/1.1/"
   xmlns:cc="http://creativecommons.org/ns#"
   xmlns:rdf="http://www.w3.org/1999/02/22-rdf-syntax-ns#"
   xmlns:svg="http://www.w3.org/2000/svg"
   xmlns="http://www.w3.org/2000/svg"
   xmlns:sodipodi="http://sodipodi.sourceforge.net/DTD/sodipodi-0.dtd"
   xmlns:inkscape="http://www.inkscape.org/namespaces/inkscape"
   width="22"
   height="22"
   id="svg13094"
   version="1.1"
   inkscape:version="0.48.3.1 r9886"
   sodipodi:docname="webcam-capture.svg">
  <sodipodi:namedview
     id="base"
     pagecolor="#ffffff"
     bordercolor="#666666"
     borderopacity="1.0"
     inkscape:pageopacity="0.0"
     inkscape:pageshadow="2"
     inkscape:zoom="32"
     inkscape:cx="11.066638"
     inkscape:cy="10.521973"
     inkscape:document-units="px"
     inkscape:current-layer="layer1"
     showgrid="true"
     inkscape:snap-bbox="true"
     inkscape:bbox-paths="true"
     inkscape:bbox-nodes="true"
     inkscape:snap-bbox-edge-midpoints="true"
     inkscape:snap-bbox-midpoints="true"
     inkscape:object-paths="true"
     inkscape:snap-intersection-paths="true"
     inkscape:object-nodes="true"
     inkscape:snap-smooth-nodes="true"
     inkscape:snap-midpoints="true"
     inkscape:snap-object-midpoints="true"
     inkscape:snap-center="true"
     showguides="false"
     inkscape:guide-bbox="true"
     inkscape:window-width="1920"
     inkscape:window-height="1033"
     inkscape:window-x="-10"
     inkscape:window-y="25"
     inkscape:window-maximized="1"
     inkscape:snap-global="true"
     fit-margin-top="0"
     fit-margin-left="0"
     fit-margin-right="0"
     fit-margin-bottom="0"
     showborder="true"
     inkscape:showpageshadow="false">
    <sodipodi:guide
       orientation="0,1"
       position="-25.000005,930.61286"
       id="guide4700" />
    <sodipodi:guide
       orientation="0,1"
       position="576.71887,328.89388"
       id="guide4702" />
    <sodipodi:guide
       orientation="1,0"
       position="576.71899,489.70395"
       id="guide4706" />
    <sodipodi:guide
       orientation="1,0"
       position="54.999996,930.61286"
       id="guide4708" />
    <sodipodi:guide
       orientation="0,1"
       position="-25.000005,850.61296"
       id="guide4710" />
    <sodipodi:guide
       orientation="0,1"
       position="536.71887,408.8938"
       id="guide4712" />
    <sodipodi:guide
       orientation="1,0"
       position="496.71887,408.8938"
       id="guide4714" />
    <inkscape:grid
       type="xygrid"
       id="grid3216"
       empspacing="5"
       visible="true"
       enabled="true"
       snapvisiblegridlinesonly="true"
       originx="-24.999951px"
       originy="-219.00005px" />
    <sodipodi:guide
       orientation="-0.70710664,0.70710692"
       position="4.0000502,-246.00005"
       id="guide3847" />
    <sodipodi:guide
       orientation="0.70710594,0.70710762"
       position="5.0000502,-245.00005"
       id="guide3849" />
    <sodipodi:guide
       orientation="-0.70710681,0.70710676"
       position="7.0000502,-212.00005"
       id="guide3851" />
  </sodipodi:namedview>
  <defs
     id="defs13096" />
  <metadata
     id="metadata13099">
    <rdf:RDF>
      <cc:Work
         rdf:about="">
        <dc:format>image/svg+xml</dc:format>
        <dc:type
           rdf:resource="http://purl.org/dc/dcmitype/StillImage" />
        <dc:title />
      </cc:Work>
    </rdf:RDF>
  </metadata>
  <g
     transform="translate(9379.308,-4837.1988)"
     id="layer1"
     inkscape:groupmode="layer"
     inkscape:label="Camada 1">
    <path
       id="path2994"
       d="m -9368.308,4839.1988 c -3.866,0 -7,3.134 -7,7 0,1.933 0.7957,3.6707 2.0625,4.9375 l -3.0625,5.0625 16,0 -3.0625,-5.0625 c 1.2668,-1.2668 2.0625,-3.0045 2.0625,-4.9375 0,-3.866 -3.134,-7 -7,-7 z m 0,4 c 2.2091,0 4,1.7909 4,4 0,2.2091 -1.7909,4 -4,4 -2.2091,0 -4,-1.7909 -4,-4 0,-2.2091 1.7909,-4 4,-4 z m 0,2 c -1.1046,0 -2,0.8954 -2,2 0,1.1046 0.8954,2 2,2 1.1046,0 2,-0.8954 2,-2 0,-1.1046 -0.8954,-2 -2,-2 z"
       style="fill:#27303a;fill-opacity:0.75328081999999996;fill-rule:nonzero;stroke:none"
       inkscape:connector-curvature="0" />
    <path
       style="font-size:medium;font-style:normal;font-variant:normal;font-weight:normal;font-stretch:normal;text-indent:0;text-align:start;text-decoration:none;line-height:normal;letter-spacing:normal;word-spacing:normal;text-transform:none;direction:ltr;block-progression:tb;writing-mode:lr-tb;text-anchor:start;baseline-shift:baseline;color:#000000;fill:#f1f3f5;fill-opacity:0.90288714000000003;fill-rule:nonzero;stroke:none;stroke-width:2;marker:none;visibility:visible;display:inline;overflow:visible;enable-background:accumulate;font-family:Sans;-inkscape-font-specification:Sans"
       d="M 9.21875 1 C 5.5543825 1.8128213 2.8125 5.0946059 2.8125 9 C 2.8125 10.8978 3.57185 12.5521 4.65625 13.9375 L 1.96875 18.375 L 1 20 L 21 20 L 20.03125 18.375 L 17.34375 13.9375 C 18.42825 12.5521 19.1875 10.8978 19.1875 9 C 19.1875 5.0946059 16.445617 1.8128213 12.78125 1 L 9.21875 1 z M 11 2 C 14.866 2 18 5.134 18 9 C 18 10.933 17.2043 12.6707 15.9375 13.9375 L 19 19 L 3 19 L 6.0625 13.9375 C 4.7957 12.6707 4 10.933 4 9 C 4 5.134 7.134 2 11 2 z M 11 6 C 8.7909 6 7 7.7909 7 10 C 7 12.2091 8.7909 14 11 14 C 13.2091 14 15 12.2091 15 10 C 15 7.7909 13.2091 6 11 6 z M 11 8 C 12.1046 8 13 8.8954 13 10 C 13 11.1046 12.1046 12 11 12 C 9.8954 12 9 11.1046 9 10 C 9 8.8954 9.8954 8 11 8 z "
       transform="translate(-9379.308,4837.1988)"
       id="path3022" />
  </g>
</svg>
